X:1
T:C minor             Alexander Gillet, 1794
T:Joel Barlow, 1786 (Psalm 137)                 10 10. 10 10.
T:Babylon
T:Transcribed from Law's Christian Harmony, 1794.
%%score [ 1 2 3 ( 4 5 ) ]
L:1/8
Q:1/4=120
M:4/4
K:Eb
V:1 treble nm="Tr." snm="Tr."
V:2 treble nm="C." snm="C."
V:3 treble-8 nm="T." snm="T."
V:4 bass nm="B." snm="B."
V:5 bass 
V:1
"^1. A–long the banks where Babel's cur –  rent       flows,   Our  cap    –    tive bands in deep ______ de   –  spon –  dence  strayed;  While\n2. The tuneless harp that once with joy    we        strung, When praise employed and mirth ______  in  –   spired       the    lay,         In" C4 | %1
 E6 G2 | c4 (B2 c2) | G4 G4 | e4 (d2 c2) | d8- | d4 G4 | (c3 d e2) B2 | c4 e4 | (g3 f e2) dc | %10
 (B3 c B2) A2 | G8- | G4 G4 | %13
"^1. Zi–on's  fall    in  sad _____  re  –  mem –  brance      rose, __________________________       Her  friends,  her  chil – dren,  min – gled\n2. mournful si–lence on _____ the     wil  –   lows         hung, __________________________      And  gro –wing  grief     pro–longed   the" G6 E2 | %14
 F4 z2 G2 | (c3 d e2) dc | =B4 cdef | (g2 fe d4 | d4 (3e2 d2 c2 | =B8) | z4 d4 | (e2 f2 g2) a2 | %22
 (g2 f2 e2) d2 | c6 B2 | %24
"^1. with ___   the    dead, ___  Her   friends,   her     chil  –  dren,  min  –    gled    with          the  dead.\n2. te     –     dious   day,   ___  And   gro  –  wing     grief     pro– longed      the      te     –    dious  day." (e3 d c2) dc | %25
 =B8- | B4 G4 | (G2 F2 E2) F2 | (G2 A2 G2) E2 | B6 A2 | G6 G2 | G8 |] %32
V:2
"^3. The barbarous tyrants,  to in –crease     the         woe,   With  taun –  ting  smiles  a  song ______  of         Zi    –    on      claim:   Bid\n4. But how, in heathen chains and lands    un –  known,  Shall  Is    –    rael's  sons   a  song ______  of         Zi    –    on       raise?    O" C4 | %1
 E6 G2 | c4 (E2 F2) | G4 G4 | (3A2 G2 F2 (3F2 G2 A2 | G8- | G4 G4 | (G3 F E2) F2 | G4 G4 | %9
 (C3 D E2) D2 | E4 (F2 D2) | E8- | E4 G4 | %13
"^3. sacred praise  in  strains     me  –  lo  –  dious           flow, ___________________________  While they blas – pheme  the    great    Je – \n4. hapless  Sa– lem, God's      ter  –  res –  trial             throne, _________________________   Thou land  of       glo  –  ry,      sa  –  cred" E6 E2 | %14
 D4 z2 D2 | (C2 D2 E2) E2 | A4 G4 | G8- | G8- | G8 | z4 F4 | B4 B4 | G4 G4 | (G2 F2 E2) D2 | %24
"^3. – ho   –    vah's    name,  While   they      blas – pheme       the   great       Je   –  ho  –   vah's   name.\n4.  mount      of      praise,   Thou   land       of        glo     –     ry,   sa    –    cred    mount   of      praise." (E2 F2 G2) FE | %25
 D8- | D4 G4 | G6 F2 | G6 A2 | (B2 A2 G2) F2 | (3(G2 F2 E2) D4 | C8 |] %32
V:3
"^5.     If  e'er  my memory lose thy love      –      ly     name,    If    my    cold  heart  ne – glect ______   my      kin   –    dred   race,     Let\n6. Yet shall the Lord, who hears when Zi  –    on     calls,     O'er–take   her  foes  with   ter        –        ror       and         dis – may,      His" C4 | %1
 E6 G2 | c4 G4 | e4 c4 | (d2 c2 B2) A2 | G8- | G4 B4 | G4 (E2 F2) | G4 G4 | (c3 d e2) dc | B6 B2 | %11
 B8- | B4 c4 | %13
"^5. dire destruction  seize ___  this    guil    –    ty          frame: _________________________     My  hand   shall   pe   –   rish,  and      my\n6. arm avenge  her   de     –     so   –   la      –    ted        walls,  _________________________     And  raise    her   chil  –  dren    to        e –" G6 G2 | %14
 B4 z2 B2 | (e3 d c2) cd | (e2 f2) g4 | (3(g2 f2 e2 f4 | (3e2 d2 c2 (3c2 d2 e2 | d8) | z4 B4 | %21
 e6 e2 | d6 d2 | c6 B2 | %24
"^5.  voice     shall     cease,      My   hand       shall    pe    –   rish,   and          my    voice     shall   cease.\n6. – ter   –    nal       day,       And   raise         her    chil  –   dren    to              e   –   ter    –   nal    day." (E2 F2 G2) A2 | %25
 G8- | G4 G4 | (c4 B2) cd | (e2 f2 g2) a2 | (g2 f2 e2) fe | d6 B2 | c8 |] %32
V:4
 C,4 | E,6 G,2 | C4 (G,2 F,2) | E,4 E,4 | (F,2 E,2) (D,2 C,2) | G,8- | G,4 G,4 | (E,3 F, E,2) D,2 | %8
 C,4 G,4 | (C3 D E2) DC | (B,3 C B,2) B,2 | E,8- | E,4 C,4 | E,6 E,2 | B,,4 z2 B,,2 | %15
 (C,2 G,,2 C,2) C,2 | E,4 G,,4 | (C,2 B,,C, D,4 | E,2 D,E, F,2 E,F, | G,8) | z4 B,4 | %21
 (E,2 B,,2 E,2) E,2 | (G,2 C,2 G,2) G,2 | (C,2 D,2 E,2) B,,2 | (C,2 B,,2 C,2) D,2 | G,8- | %26
 G,4 C,4 | (E,2 F,2 G,2) A,2 | (G,2 F,2 E,2) B,,2 | (E,2 F,2 G,2) A,2 | G,6 G,,2 | C,8 |] %32
V:5
 x4 | x8 | x8 | x8 | x8 | G,,8- | G,,4 G,,4 | x8 | x4 G,,4 | C,8 | B,,8 | E,,8- | E,,4 x4 | x8 | %14
 x8 | x8 | x8 | x8 | G,,8- | G,,8 | x4 B,,4 | x8 | x8 | x8 | x8 | G,,8- | G,,4 x4 | x8 | x8 | x8 | %30
 x8 | x8 |] %32

